packages/website/src/html/img/resources-icon.svg

<svg width="82" height="68" viewBox="0 0 82 68" xmlns="http://www.w3.org/2000/svg"><title>noun_396828_cc</title><g fill="none" fill-rule="evenodd"><path d="M.001 21.723a.95.95 0 0 1 .955-.999h79.185c.55 0 .974.449.941.998l-2.661 45.219a1.077 1.077 0 0 1-1.059.998H3.092c-.55 0-1.021-.449-1.045-.999L.001 21.723z" fill="#16214D"/><path d="M3.699 16.098a.876.876 0 0 0 .888.994h71.494c.55 0 1-.45 1-1V7.623c0-.55-.45-1-1-1H38.984c-.55 0-1.318-.318-1.707-.707L32.068.707C31.68.318 30.911 0 30.361 0H6.51c-.55 0-1.05.447-1.112.994L3.699 16.098z" fill="#44C7F4"/></g></svg>

<svg width="82px" height="68px" viewBox="0 0 82 68" version="1.1" xmlns="http://www.w3.org/2000/svg" xmlns:xlink="http://www.w3.org/1999/xlink">
    <!-- Generator: Sketch 3.6.1 (26313) - http://www.bohemiancoding.com/sketch -->
    <title>noun_396828_cc</title>
    <desc>Created with Sketch.</desc>
    <defs></defs>
    <g id="Page-1" stroke="none" stroke-width="1" fill="none" fill-rule="evenodd">
        <g id="noun_396828_cc">
            <path d="M0.001,21.723 C-0.024,21.174 0.406,20.724 0.956,20.724 L80.141,20.724 C80.691,20.724 81.115,21.173 81.082,21.722 L78.421,66.941 C78.389,67.49 77.912,67.939 77.362,67.939 L3.092,67.939 C2.542,67.939 2.071,67.49 2.047,66.94 L0.001,21.723 L0.001,21.723 Z" id="Shape" fill="#16214D"></path>
            <path d="M3.699,16.098 C3.637,16.644 4.037,17.092 4.587,17.092 L76.081,17.092 C76.631,17.092 77.081,16.642 77.081,16.092 L77.081,7.623 C77.081,7.073 76.631,6.623 76.081,6.623 L38.984,6.623 C38.434,6.623 37.666,6.305 37.277,5.916 L32.068,0.707 C31.68,0.318 30.911,0 30.361,0 L6.51,0 C5.96,0 5.46,0.447 5.398,0.994 L3.699,16.098 L3.699,16.098 Z" id="Shape" fill="#44C7F4"></path>
        </g>
    </g>
</svg>
